; generated by PrusaSlicer 2.9.2 on 2025-07-15 at 15:36:56 UTC


;
;
; 

; external perimeters extrusion width = 0.45mm
; perimeters extrusion width = 0.45mm
; infill extrusion width = 0.45mm
; solid infill extrusion width = 0.45mm
; top infill extrusion width = 0.40mm
; support material extrusion width = 0.35mm
; first layer extrusion width = 0.42mm

M73 P0 R53
M73 Q0 S53
M201 X1000 Y1000 Z200 E5000 ; sets maximum accelerations, mm/sec^2
M203 X200 Y200 Z12 E120 ; sets maximum feedrates, mm / sec
M204 S1250 T1250 ; sets acceleration (S) and retract acceleration (R), mm/sec^2
M205 X8.00 Y8.00 Z0.40 E4.50 ; sets the jerk limits, mm/sec
M205 S0 T0 ; sets the minimum extruding and travel feed rate, mm/sec

; printing object Flag v3.obj id:0 copy 0
; stop printing object Flag v3.obj id:0 copy 0

;TYPE:Custom
M862.3 P "MK3S" ; printer model check
M862.1 P0.4 ; nozzle diameter check
M115 U3.14.1 ; tell printer latest fw version
G90 ; use absolute coordinates
M83 ; extruder relative mode
M104 S215 ; set extruder temp
M140 S60 ; set bed temp
M190 S60 ; wait for bed temp
M109 S215 ; wait for extruder temp
G28 W ; home all without mesh bed level
G80 X79.7678 Y40.7383 W94.3872 H123.381 ; mesh bed levelling

G1 Z0.2 F720
G1 Y-3 F1000 ; go outside print area
G92 E0
G1 X60 E9 F1000 ; intro line
G1 X100 E12.5 F1000 ; intro line

G92 E0
M221 S95

; Don't change E values below. Excessive value can damage the printer.
M907 E430 ; set extruder motor current
G21 ; set units to millimeters
G90 ; use absolute coordinates
M83 ; use relative distances for extrusion

M900 K0.05 ; Filament gcode LA 1.5
M900 K30 ; Filament gcode LA 1.0




M107
;LAYER_CHANGE
;Z:0.2
;HEIGHT:0.2
G1 E-.8 F2100
G1 Z.6 F720
G1 X81.246 Y41.612 F10800
G1 Z.2 F720
G1 E.8 F2100
M204 S800
;TYPE:Skirt/Brim
;WIDTH:0.42
G1 F1200
G1 X82.836 Y40.927 E.05428
G1 X166.857 Y40.927 E2.63442
G1 X168.105 Y41.318 E.04101
G1 X169.016 Y42.761 E.05351
G1 X173.967 Y73.107 E.96406
G1 X173.967 Y161.742 E2.77909
G1 X173.576 Y162.99 E.04101
G1 X172.543 Y163.793 E.04102
G1 X171.778 Y163.931 E.02437
G1 X161.277 Y163.931 E.32925
G1 X159.985 Y163.509 E.04262
G1 X81.544 Y106.139 E3.04707
G1 X80.767 Y105.086 E.04103
M73 P0 R52
G1 X80.648 Y104.415 E.02137
G1 X80.58 Y100.942 E.10891
G1 X79.956 Y47.706 E1.66929
G1 X80.672 Y42.788 E.15583
G1 X81.219 Y41.666 E.03914
M204 S1000
;WIPE_START
G1 F8640
G1 X81.246 Y41.612 E-.01394
G1 X82.836 Y40.927 E-.39976
G1 X84.509 Y40.927 E-.3863
;WIPE_END
G1 Z.6 F720
; printing object Flag v3.obj id:0 copy 0
G1 X168.835 Y159.531 F10800
G1 Z.2 F720
G1 E.8 F2100
M204 S800
;TYPE:Support material interface
;WIDTH:0.35
G1 F1200
G1 X168.835 Y159.106 E.01085
G1 X168.609 Y159.106 E.00577
G1 X168.609 Y161.413 E.05891
G1 X168.102 Y161.413 E.01295
G1 X168.102 Y159.106 E.05891
G1 X167.595 Y159.106 E.01295
G1 X167.595 Y161.413 E.05891
G1 X167.088 Y161.413 E.01295
G1 X167.088 Y161.184 E.00585
G1 X166.58 Y161.19 E.01297
G1 X166.58 Y161.413 E.00569
G1 X166.073 Y161.413 E.01295
G1 X166.073 Y161.196 E.00554
G1 X165.566 Y161.202 E.01295
G1 X165.566 Y161.413 E.00539
G1 X165.059 Y161.413 E.01295
G1 X165.059 Y161.208 E.00523
G1 X164.887 Y161.211 E.00439
G1 X164.732 Y161.059 E.00554
M204 S1000
;WIPE_START
G1 F8640
G1 X164.887 Y161.211 E-.05013
G1 X165.059 Y161.208 E-.03972
G1 X165.059 Y161.413 E-.04734
G1 X165.566 Y161.413 E-.11707
G1 X165.566 Y161.202 E-.04872
G1 X166.073 Y161.196 E-.11708
G1 X166.073 Y161.413 E-.05011
G1 X166.58 Y161.413 E-.11707
G1 X166.58 Y161.19 E-.05149
G1 X167.088 Y161.184 E-.11731
G1 X167.088 Y161.374 E-.04396
;WIPE_END
G1 Z.6 F720
G1 X164.552 Y159.106 F10800
G1 Z.2 F720
G1 E.8 F2100
M204 S800
G1 F1200
G1 X164.552 Y161.413 E.05891
G1 X164.22 Y161.413 E.00848
G1 X164.22 Y159.106 E.05891
G1 X164.399 Y159.106 E.00457
M204 S1000
;WIPE_START
G1 F8640
G1 X164.22 Y159.106 E-.04133
G1 X164.22 Y161.413 E-.53269
G1 X164.552 Y161.413 E-.07666
G1 X164.552 Y160.766 E-.14932
;WIPE_END
G1 Z.6 F720
G1 X161.55 Y113.328 F10800
G1 Z.2 F720
G1 E.8 F2100
M204 S800
;TYPE:Support material
;WIDTH:0.42
G1 F1200
G1 X164.459 Y113.328 E.09121
G1 X164.454 Y110.328 E.09406
G1 X164.983 Y159.541 E1.54313
G1 X164.974 Y158.742 E.02505
M73 P1 R52
M73 Q1 S53
G1 X163.857 Y158.742 E.03502
G1 X163.857 Y161.742 E.09406
G1 X161.277 Y161.742 E.08089
G1 X161.277 Y132.057 E.93075
G1 X158.97 Y132.057 E.07233
G1 X158.97 Y110.328 E.6813
G1 X161.55 Y110.328 E.08089
G1 X161.55 Y113.271 E.09228
M204 S1000
G1 X164.384 Y158.572 F10800
M204 S800
G1 F1200
G1 X164.384 Y135.333 E.72864
G1 X164.151 Y113.667 E.67936
G1 X163.965 Y113.667 E.00583
G1 X163.965 Y158.403 E1.40267
G1 X163.546 Y158.403 E.01314
G1 X163.546 Y113.667 E1.40267
G1 X163.127 Y113.667 E.01314
G1 X163.127 Y161.403 E1.49673
G1 X162.708 Y161.403 E.01314
M73 Q1 S52
G1 X162.708 Y113.667 E1.49673
G1 X162.289 Y113.667 E.01314
G1 X162.289 Y161.403 E1.49673
G1 X161.87 Y161.403 E.01314
G1 X161.87 Y113.667 E1.49673
G1 X161.451 Y113.667 E.01314
G1 X161.451 Y131.718 E.56598
G1 X161.032 Y131.718 E.01314
G1 X161.032 Y110.667 E.66004
G1 X160.613 Y110.667 E.01314
G1 X160.613 Y131.718 E.66004
G1 X160.194 Y131.718 E.01314
G1 X160.194 Y110.667 E.66004
G1 X159.775 Y110.667 E.01314
G1 X159.775 Y131.718 E.66004
G1 X159.356 Y131.718 E.01314
G1 X159.356 Y110.497 E.66537
M204 S1000
;WIPE_START
G1 F8640
G1 X159.356 Y113.962 E-.8
;WIPE_END
G1 Z.6 F720
G1 X162.017 Y112.964 F10800
G1 Z.2 F720
G1 E.8 F2100
M204 S800
;TYPE:Support material interface
;WIDTH:0.35
G1 F1200
G1 X162.017 Y99.122 E.35344
G1 X162.524 Y99.122 E.01295
G1 X162.524 Y112.964 E.35344
G1 X163.031 Y112.964 E.01295
G1 X163.031 Y99.122 E.35344
M204 S1000
;WIPE_START
G1 F8640
G1 X163.031 Y102.587 E-.8
;WIPE_END
G1 Z.6 F720
G1 X163.277 Y100.355 F10800
G1 Z.2 F720
G1 E.8 F2100
M204 S800
G1 F1200
G1 X163.538 Y100.378 E.00669
G1 X163.538 Y112.964 E.32137
G1 X164.045 Y112.964 E.01295
G1 X163.948 Y100.373 E.32151
M204 S1000
;WIPE_START
G1 F8640
G1 X163.975 Y103.838 E-.8
;WIPE_END
G1 Z.6 F720
G1 X164.364 Y101.907 F10800
M73 Q2 S52
G1 Z.2 F720
G1 E.8 F2100
M73 P2 R52
M204 S800
;TYPE:Support material
;WIDTH:0.42
G1 F1200
G1 X164.39 Y104.372 E.07729
G1 X164.313 Y100.425 E.12378
G1 X164.363 Y101.85 E.04471
M204 S1000
;WIPE_START
G1 F8640
G1 X164.313 Y100.425 E-.32924
G1 X164.353 Y102.463 E-.47076
;WIPE_END
G1 Z.6 F720
G1 X166.472 Y105.563 F10800
G1 Z.2 F720
G1 E.8 F2100
M204 S800
G1 F1200
G1 X166.483 Y106.407 E.02647
G1 X169.198 Y106.407 E.08513
G1 X169.198 Y103.407 E.09406
G1 X171.778 Y103.407 E.08089
G1 X171.778 Y161.742 E1.82905
G1 X169.198 Y161.742 E.08089
G1 X169.198 Y158.742 E.09406
G1 X167.139 Y158.742 E.06456
G1 X167.163 Y160.786 E.06409
G1 X166.418 Y103.407 E1.79923
G1 X166.472 Y105.506 E.06583
M204 S1000
G1 X171.087 Y161.572 F10800
M204 S800
G1 F1200
G1 X171.087 Y103.746 E1.81309
G1 X170.668 Y103.746 E.01314
G1 X170.668 Y161.403 E1.80779
G1 X170.25 Y161.403 E.01311
G1 X170.25 Y103.746 E1.80779
G1 X169.831 Y103.746 E.01314
M73 P2 R51
G1 X169.831 Y161.403 E1.80779
G1 X169.538 Y161.403 E.00919
G1 X169.538 Y158.403 E.09406
G1 X169.412 Y158.403 E.00395
G1 X169.412 Y106.746 E1.61967
G1 X168.993 Y106.746 E.01314
G1 X168.993 Y158.403 E1.61967
G1 X168.574 Y158.403 E.01314
G1 X168.574 Y106.746 E1.61967
G1 X168.155 Y106.746 E.01314
G1 X168.155 Y158.403 E1.61967
G1 X167.736 Y158.403 E.01314
G1 X167.736 Y106.746 E1.61967
G1 X167.317 Y106.746 E.01314
M73 P3 R51
M73 Q3 S52
G1 X167.317 Y146.475 E1.24567
G1 X166.898 Y114.176 E1.0128
G1 X166.898 Y106.576 E.23829
M204 S1000
G1 X166.934 Y106.043 F10800
M204 S800
;TYPE:Support material interface
;WIDTH:0.35
G1 F1200
G1 X166.842 Y106.043 E.00235
G1 X166.668 Y92.2 E.35349
G1 X167.088 Y92.2 E.01072
G1 X167.088 Y106.043 E.35346
G1 X167.595 Y106.043 E.01295
G1 X167.595 Y92.2 E.35346
G1 X168.102 Y92.2 E.01295
G1 X168.102 Y106.043 E.35346
G1 X168.609 Y106.043 E.01295
G1 X168.609 Y92.2 E.35346
G1 X168.835 Y92.2 E.00577
M73 Q3 S51
G1 X168.835 Y92.626 E.01088
M204 S1000
;WIPE_START
G1 F8640
G1 X168.835 Y92.2 E-.09836
G1 X168.609 Y92.2 E-.05218
G1 X168.609 Y95.013 E-.64946
;WIPE_END
G1 Z.6 F720
G1 X171.778 Y94.837 F10800
G1 Z.2 F720
G1 E.8 F2100
M204 S800
;TYPE:Support material
;WIDTH:0.42
G1 F1200
G1 X169.198 Y94.837 E.08089
G1 X169.198 Y91.837 E.09406
G1 X166.891 Y91.837 E.07233
G1 X166.891 Y73.107 E.58727
G1 X171.778 Y73.107 E.15323
G1 X171.778 Y94.78 E.67954
M204 S1000
G1 X171.087 Y94.667 F10800
M204 S800
G1 F1200
G1 X171.087 Y73.447 E.66534
G1 X170.668 Y73.447 E.01314
G1 X170.668 Y94.497 E.66001
G1 X170.25 Y94.497 E.01311
G1 X170.25 Y73.447 E.66001
G1 X169.831 Y73.447 E.01314
G1 X169.831 Y94.497 E.66001
G1 X169.538 Y94.497 E.00919
G1 X169.538 Y91.497 E.09406
G1 X169.412 Y91.497 E.00395
G1 X169.412 Y73.447 E.56595
G1 X168.993 Y73.447 E.01314
G1 X168.993 Y91.497 E.56595
G1 X168.574 Y91.497 E.01314
G1 X168.574 Y73.447 E.56595
G1 X168.155 Y73.447 E.01314
G1 X168.155 Y91.497 E.56595
G1 X167.736 Y91.497 E.01314
G1 X167.736 Y73.447 E.56595
G1 X167.317 Y73.447 E.01314
G1 X167.317 Y91.667 E.57128
M204 S1000
;WIPE_START
G1 F8640
G1 X167.317 Y88.202 E-.8
;WIPE_END
G1 Z.6 F720
G1 X166.072 Y73.671 F10800
G1 Z.2 F720
G1 E.8 F2100
M204 S800
G1 F1200
G1 X166.338 Y94.837 E.6637
G1 X166.012 Y73.107 E.68141
G1 X166.065 Y73.107 E.00166
G1 X166.071 Y73.614 E.0159
M204 S1000
;WIPE_START
G1 F8640
G1 X166.065 Y73.107 E-.11708
G1 X166.012 Y73.107 E-.01224
G1 X166.056 Y76.011 E-.67068
;WIPE_END
G1 Z.6 F720
G1 X140.873 Y71.437 F10800
G1 Z.2 F720
G1 E.8 F2100
M204 S800
;TYPE:Support material interface
;WIDTH:0.35
G1 F1200
G1 X141.15 Y71.437 E.00707
G1 X141.15 Y46.059 E.648
G1 X140.719 Y46.059 E.01101
G1 X140.719 Y71.437 E.648
G1 X140.212 Y71.437 E.01295
G1 X140.212 Y46.059 E.648
G1 X139.705 Y46.059 E.01295
G1 X139.705 Y71.437 E.648
G1 X139.198 Y71.437 E.01295
G1 X139.198 Y46.059 E.648
G1 X138.842 Y46.059 E.00909
M73 P4 R51
M73 Q4 S51
G1 X138.842 Y48.366 E.05891
G1 X138.691 Y48.366 E.00386
G1 X138.691 Y62.208 E.35344
G1 X138.842 Y62.208 E.00386
G1 X138.842 Y64.515 E.05891
G1 X138.691 Y64.515 E.00386
G1 X138.691 Y101.429 E.94255
G1 X138.184 Y101.429 E.01295
G1 X138.184 Y64.515 E.94255
G1 X137.677 Y64.515 E.01295
G1 X137.677 Y101.429 E.94255
G1 X137.17 Y101.429 E.01295
G1 X137.17 Y64.515 E.94255
G1 X136.689 Y64.515 E.01228
G1 X136.663 Y101.429 E.94255
G1 X136.156 Y101.429 E.01295
G1 X136.156 Y76.051 E.648
G1 X135.649 Y76.051 E.01295
M73 P4 R50
G1 X135.649 Y101.429 E.648
G1 X135.142 Y101.429 E.01295
G1 X135.142 Y76.051 E.648
G1 X134.635 Y76.051 E.01295
G1 X134.635 Y101.429 E.648
G1 X134.127 Y101.429 E.01297
G1 X134.127 Y46.059 E1.41381
G1 X134.635 Y46.059 E.01297
G1 X134.635 Y62.208 E.41234
G1 X135.142 Y62.208 E.01295
G1 X135.142 Y46.059 E.41234
G1 X135.649 Y46.059 E.01295
G1 X135.649 Y62.208 E.41234
G1 X136.156 Y62.208 E.01295
G1 X136.156 Y46.059 E.41234
G1 X136.535 Y46.059 E.00968
G1 X136.535 Y48.366 E.05891
G1 X136.663 Y48.366 E.00327
G1 X136.663 Y62.208 E.35344
G1 X137.17 Y62.208 E.01295
G1 X137.17 Y48.366 E.35344
G1 X137.677 Y48.366 E.01295
G1 X137.677 Y62.208 E.35344
G1 X138.184 Y62.208 E.01295
G1 X138.184 Y48.366 E.35344
M204 S1000
;WIPE_START
G1 F8640
G1 X138.184 Y51.831 E-.8
;WIPE_END
G1 Z.6 F720
G1 X133.974 Y46.059 F10800
G1 Z.2 F720
G1 E.8 F2100
M204 S800
G1 F1200
G1 X133.62 Y46.059 E.00904
G1 X133.62 Y101.429 E1.41381
G1 X133.113 Y101.429 E.01295
G1 X133.113 Y46.059 E1.41381
G1 X132.606 Y46.059 E.01295
G1 X132.606 Y101.429 E1.41381
G1 X132.099 Y101.429 E.01295
M73 P5 R50
M73 Q5 S51
G1 X132.099 Y46.059 E1.41381
G1 X131.921 Y46.059 E.00455
M73 Q5 S50
G1 X131.921 Y46.411 E.00899
M204 S1000
;WIPE_START
G1 F8640
G1 X131.921 Y46.059 E-.08128
G1 X132.099 Y46.059 E-.0411
G1 X132.099 Y48.994 E-.67762
;WIPE_END
G1 Z.6 F720
G1 X129.564 Y46.059 F10800
G1 Z.2 F720
G1 E.8 F2100
M204 S800
G1 F1200
G1 X129.564 Y101.429 E1.41381
G1 X129.057 Y101.429 E.01295
G1 X129.057 Y46.059 E1.41381
G1 X128.55 Y46.059 E.01295
G1 X128.55 Y101.429 E1.41381
G1 X128.042 Y101.429 E.01297
G1 X128.042 Y46.059 E1.41381
G1 X127.535 Y46.059 E.01295
G1 X127.535 Y101.429 E1.41381
G1 X127.028 Y101.429 E.01295
G1 X127.028 Y46.059 E1.41381
G1 X126.521 Y46.059 E.01295
G1 X126.521 Y101.429 E1.41381
G1 X126.014 Y101.429 E.01295
G1 X126.014 Y46.059 E1.41381
G1 X125.507 Y46.059 E.01295
G1 X125.507 Y101.429 E1.41381
G1 X125 Y101.429 E.01295
G1 X125 Y46.059 E1.41381
G1 X124.493 Y46.059 E.01295
M73 P6 R50
M73 Q6 S50
G1 X124.493 Y101.429 E1.41381
G1 X123.986 Y101.429 E.01295
G1 X123.986 Y46.059 E1.41381
G1 X123.479 Y46.059 E.01295
G1 X123.479 Y101.429 E1.41381
G1 X122.972 Y101.429 E.01295
M73 P6 R49
G1 X122.972 Y46.059 E1.41381
G1 X122.465 Y46.059 E.01295
G1 X122.465 Y101.429 E1.41381
G1 X121.958 Y101.429 E.01295
G1 X121.958 Y46.059 E1.41381
G1 X121.45 Y46.059 E.01297
G1 X121.45 Y101.429 E1.41381
G1 X120.943 Y101.429 E.01295
G1 X120.943 Y46.059 E1.41381
G1 X120.436 Y46.059 E.01295
G1 X120.436 Y101.429 E1.41381
G1 X119.929 Y101.429 E.01295
G1 X119.929 Y64.515 E.94255
G1 X119.422 Y64.515 E.01295
G1 X119.422 Y101.429 E.94255
G1 X118.915 Y101.429 E.01295
G1 X118.915 Y64.515 E.94255
G1 X118.408 Y64.515 E.01295
M73 P7 R49
G1 X118.408 Y84.186 E.50227
G1 X118.49 Y87.586 E.08684
M73 Q7 S49
G1 X118.408 Y87.586 E.00209
G1 X118.408 Y101.429 E.35346
G1 X117.901 Y101.429 E.01295
G1 X117.901 Y46.059 E1.41381
G1 X118.408 Y46.059 E.01295
G1 X118.408 Y48.366 E.05891
G1 X118.915 Y48.366 E.01295
G1 X118.915 Y46.059 E.05891
G1 X119.422 Y46.059 E.01295
G1 X119.422 Y48.366 E.05891
G1 X119.929 Y48.366 E.01295
G1 X119.929 Y46.059 E.05891
M204 S1000
;WIPE_START
G1 F8640
G1 X119.929 Y48.366 E-.53269
G1 X119.422 Y48.366 E-.11707
G1 X119.422 Y47.715 E-.15024
;WIPE_END
G1 Z.6 F720
G1 X117.747 Y46.059 F10800
G1 Z.2 F720
G1 E.8 F2100
M204 S800
G1 F1200
G1 X117.394 Y46.059 E.00901
G1 X117.394 Y101.429 E1.41381
G1 X116.887 Y101.429 E.01295
G1 X116.887 Y46.059 E1.41381
G1 X116.38 Y46.059 E.01295
G1 X116.38 Y101.429 E1.41381
G1 X115.873 Y101.429 E.01295
G1 X115.873 Y46.059 E1.41381
G1 X115.366 Y46.059 E.01295
G1 X115.365 Y101.429 E1.41381
G1 X114.858 Y101.429 E.01295
G1 X114.858 Y46.059 E1.41381
G1 X114.351 Y46.059 E.01295
G1 X114.351 Y101.429 E1.41381
G1 X113.844 Y101.429 E.01295
G1 X113.844 Y46.059 E1.41381
G1 X113.337 Y46.059 E.01295
G1 X113.337 Y78.358 E.82472
G1 X113.465 Y78.358 E.00327
G1 X113.465 Y80.665 E.05891
G1 X113.337 Y80.665 E.00327
G1 X113.337 Y96.815 E.41237
G1 X113.465 Y96.815 E.00327
G1 X113.465 Y101.429 E.11781
M204 S1000
G1 X113.101 Y101.792 F10800
M204 S800
;TYPE:Support material
;WIDTH:0.42
G1 F1200
G1 X116.101 Y101.792 E.09406
G1 X116.101 Y104.372 E.08089
G1 X108.521 Y104.372 E.23767
M73 P8 R49
G1 X108.521 Y101.792 E.08089
G1 X111.521 Y101.792 E.09406
G1 X111.521 Y97.178 E.14467
G1 X113.101 Y97.178 E.04954
G1 X113.101 Y101.736 E.14291
M204 S1000
G1 X115.364 Y104.202 F10800
M73 Q8 S49
M204 S800
G1 F1200
G1 X115.364 Y102.132 E.0649
G1 X114.945 Y102.132 E.01314
G1 X114.945 Y104.033 E.0596
G1 X114.526 Y104.033 E.01314
G1 X114.526 Y102.132 E.0596
G1 X114.107 Y102.132 E.01314
G1 X114.107 Y104.033 E.0596
G1 X113.688 Y104.033 E.01314
G1 X113.688 Y102.132 E.0596
G1 X113.269 Y102.132 E.01314
G1 X113.269 Y104.033 E.0596
G1 X112.85 Y104.033 E.01314
G1 X112.85 Y102.132 E.0596
G1 X112.762 Y102.132 E.00276
G1 X112.762 Y97.518 E.14467
G1 X112.431 Y97.518 E.01038
G1 X112.431 Y104.033 E.20427
G1 X112.012 Y104.033 E.01314
G1 X112.012 Y97.518 E.20427
G1 X111.861 Y97.518 E.00473
G1 X111.861 Y102.132 E.14467
G1 X111.593 Y102.132 E.0084
G1 X111.593 Y104.033 E.0596
G1 X111.174 Y104.033 E.01314
M73 P8 R48
G1 X111.174 Y102.132 E.0596
G1 X110.755 Y102.132 E.01314
G1 X110.755 Y104.033 E.0596
G1 X110.336 Y104.033 E.01314
G1 X110.336 Y102.132 E.0596
G1 X109.917 Y102.132 E.01314
G1 X109.917 Y104.033 E.0596
G1 X109.498 Y104.033 E.01314
G1 X109.498 Y102.132 E.0596
G1 X109.079 Y102.132 E.01314
G1 X109.079 Y104.202 E.0649
M204 S1000
;WIPE_START
G1 F8640
G1 X109.079 Y102.132 E-.47797
G1 X109.498 Y102.132 E-.09675
G1 X109.498 Y103.108 E-.22528
;WIPE_END
G1 Z.6 F720
G1 X102.042 Y101.074 F10800
G1 Z.2 F720
G1 E.8 F2100
M204 S800
;TYPE:Support material interface
;WIDTH:0.35
G1 F1200
G1 X101.929 Y100.963 E.00404
G1 X101.929 Y101.429 E.0119
G1 X102.181 Y101.429 E.00643
G1 X102.181 Y101.108 E.0082
