; generated by PrusaSlicer 2.9.2 on 2025-07-15 at 15:23:55 UTC


;
;
; 

; external perimeters extrusion width = 0.45mm
; perimeters extrusion width = 0.45mm
; infill extrusion width = 0.45mm
; solid infill extrusion width = 0.45mm
; top infill extrusion width = 0.40mm
; support material extrusion width = 0.35mm
; first layer extrusion width = 0.42mm

M73 P0 R126
M73 Q0 S127
M201 X1000 Y1000 Z200 E5000 ; sets maximum accelerations, mm/sec^2
M203 X200 Y200 Z12 E120 ; sets maximum feedrates, mm / sec
M204 S1250 T1250 ; sets acceleration (S) and retract acceleration (R), mm/sec^2
M205 X8.00 Y8.00 Z0.40 E4.50 ; sets the jerk limits, mm/sec
M205 S0 T0 ; sets the minimum extruding and travel feed rate, mm/sec

; printing object Shell v1.obj id:0 copy 0
; stop printing object Shell v1.obj id:0 copy 0

;TYPE:Custom
M862.3 P "MK3S" ; printer model check
M862.1 P0.4 ; nozzle diameter check
M115 U3.14.1 ; tell printer latest fw version
G90 ; use absolute coordinates
M83 ; extruder relative mode
M104 S215 ; set extruder temp
M140 S60 ; set bed temp
M190 S60 ; wait for bed temp
M109 S215 ; wait for extruder temp
G28 W ; home all without mesh bed level
G80 X72.6229 Y51.2308 W108.453 H107.538 ; mesh bed levelling

G1 Z0.2 F720
G1 Y-3 F1000 ; go outside print area
G92 E0
G1 X60 E9 F1000 ; intro line
G1 X100 E12.5 F1000 ; intro line
M73 P0 R125

G92 E0
M221 S95

; Don't change E values below. Excessive value can damage the printer.
M907 E430 ; set extruder motor current
G21 ; set units to millimeters
G90 ; use absolute coordinates
M83 ; use relative distances for extrusion

M900 K0.05 ; Filament gcode LA 1.5
M900 K30 ; Filament gcode LA 1.0




M107
;LAYER_CHANGE
;Z:0.2
;HEIGHT:0.2
G1 E-.8 F2100
G1 Z.6 F720
G1 X73.202 Y53.752 F10800
G1 Z.2 F720
G1 E.8 F2100
M204 S800
;TYPE:Skirt/Brim
;WIDTH:0.42
G1 F1200
G1 X74.235 Y52.949 E.04102
G1 X74.969 Y52.812 E.02341
G1 X173.949 Y51.42 E3.10376
G1 X178.699 Y51.419 E.14893
G1 X179.947 Y51.81 E.04101
G1 X180.75 Y52.843 E.04102
G1 X180.888 Y53.608 E.02437
G1 X180.888 Y156.392 E3.22272
G1 X180.497 Y157.64 E.04101
G1 X179.464 Y158.443 E.04102
G1 X178.699 Y158.581 E.02437
G1 X173.949 Y158.58 E.14893
G1 X74.969 Y157.188 E3.10376
G1 X73.727 Y156.78 E.04099
G1 X72.939 Y155.736 E.04101
G1 X72.811 Y155 E.02342
G1 X72.811 Y55 E3.13543
G1 X73.184 Y53.809 E.03913
M204 S1000
;WIPE_START
G1 F8640
G1 X73.202 Y53.752 E-.0138
G1 X74.235 Y52.949 E-.30211
G1 X74.969 Y52.812 E-.17241
G1 X76.319 Y52.793 E-.31168
;WIPE_END
G1 Z.6 F720
; printing object Shell v1.obj id:0 copy 0
G1 X178.699 Y156.392 F10800
G1 Z.2 F720
M73 Q0 S126
G1 E.8 F2100
M204 S800
;TYPE:Support material
G1 F1200
G1 X173.98 Y156.392 E.14796
G1 X173.98 Y155.48 E.0286
G1 X175.199 Y155.48 E.03822
G1 X175.48 Y155.199 E.01246
G1 X175.48 Y143.584 E.36418
G1 X178.699 Y143.584 E.10093
G1 X178.699 Y156.336 E.39983
M204 S1000
G1 X178.21 Y156.222 F10800
M204 S800
G1 F1200
G1 X178.21 Y143.923 E.38563
G1 X177.791 Y143.923 E.01314
G1 X177.791 Y156.053 E.38033
G1 X177.372 Y156.053 E.01314
G1 X177.372 Y143.923 E.38033
G1 X176.953 Y143.923 E.01314
G1 X176.953 Y156.053 E.38033
G1 X176.534 Y156.053 E.01314
G1 X176.534 Y143.923 E.38033
G1 X176.115 Y143.923 E.01314
G1 X176.115 Y156.053 E.38033
G1 X175.696 Y156.053 E.01314
G1 X175.696 Y155.463 E.0185
G1 X175.277 Y155.819 E.01724
G1 X175.277 Y156.053 E.00734
G1 X174.858 Y156.053 E.01314
G1 X174.858 Y155.819 E.00734
G1 X174.439 Y155.819 E.01314
G1 X174.439 Y156.222 E.01264
M204 S1000
;WIPE_START
G1 F8640
G1 X174.439 Y155.819 E-.09305
G1 X174.858 Y155.819 E-.09675
G1 X174.858 Y156.053 E-.05403
G1 X175.277 Y156.053 E-.09675
G1 X175.277 Y155.819 E-.05403
G1 X175.696 Y155.463 E-.12695
G1 X175.696 Y156.053 E-.13623
G1 X176.115 Y156.053 E-.09675
G1 X176.115 Y155.856 E-.04546
;WIPE_END
G1 Z.6 F720
G1 X164.52 Y144.52 F10800
G1 Z.2 F720
G1 E.8 F2100
M204 S800
G1 F1200
G1 X85.48 Y144.52 E2.47824
G1 X85.48 Y65.48 E2.47824
G1 X164.52 Y65.48 E2.47824
G1 X164.52 Y144.463 E2.47646
M204 S1000
;WIPE_START
G1 F8640
G1 X164.52 Y140.998 E-.8
;WIPE_END
G1 Z.6 F720
G1 X88.723 Y68.723 F10800
G1 Z.2 F720
G1 E.8 F2100
M204 S800
G1 F1200
G1 X161.277 Y68.723 E2.27488
G1 X161.277 Y141.277 E2.27488
G1 X88.723 Y141.277 E2.27488
G1 X88.723 Y68.78 E2.27309
M73 P0 R124
M204 S1000
;WIPE_START
G1 F8640
G1 X88.723 Y72.245 E-.8
;WIPE_END
G1 Z.6 F720
G1 X163.965 Y144.35 F10800
G1 Z.2 F720
G1 E.8 F2100
M204 S800
G1 F1200
G1 X163.965 Y65.819 E2.46228
G1 X163.546 Y65.819 E.01314
G1 X163.546 Y144.181 E2.45699
G1 X163.127 Y144.181 E.01314
M73 P1 R124
M73 Q1 S126
G1 X163.127 Y65.819 E2.45699
G1 X162.708 Y65.819 E.01314
G1 X162.708 Y144.181 E2.45699
G1 X162.289 Y144.181 E.01314
G1 X162.289 Y65.819 E2.45699
G1 X161.87 Y65.819 E.01314
M73 Q1 S125
G1 X161.87 Y144.181 E2.45699
G1 X161.451 Y144.181 E.01314
G1 X161.451 Y65.819 E2.45699
G1 X161.032 Y65.819 E.01314
G1 X161.032 Y68.384 E.08042
G1 X160.613 Y68.384 E.01314
G1 X160.613 Y65.819 E.08042
G1 X160.194 Y65.819 E.01314
G1 X160.194 Y68.384 E.08042
G1 X159.775 Y68.384 E.01314
G1 X159.775 Y65.819 E.08042
G1 X159.356 Y65.819 E.01314
G1 X159.356 Y68.384 E.08042
G1 X158.937 Y68.384 E.01314
G1 X158.937 Y65.819 E.08042
G1 X158.518 Y65.819 E.01314
G1 X158.518 Y68.384 E.08042
G1 X158.099 Y68.384 E.01314
G1 X158.099 Y65.819 E.08042
G1 X157.68 Y65.819 E.01314
G1 X157.68 Y68.384 E.08042
G1 X157.261 Y68.384 E.01314
G1 X157.261 Y65.819 E.08042
G1 X156.842 Y65.819 E.01314
G1 X156.842 Y68.384 E.08042
G1 X156.423 Y68.384 E.01314
G1 X156.423 Y65.819 E.08042
G1 X156.004 Y65.819 E.01314
G1 X156.004 Y68.384 E.08042
G1 X155.585 Y68.384 E.01314
G1 X155.585 Y65.819 E.08042
G1 X155.166 Y65.819 E.01314
G1 X155.166 Y68.384 E.08042
G1 X154.747 Y68.384 E.01314
G1 X154.747 Y65.819 E.08042
G1 X154.328 Y65.819 E.01314
G1 X154.328 Y68.384 E.08042
G1 X153.909 Y68.384 E.01314
G1 X153.909 Y65.819 E.08042
G1 X153.49 Y65.819 E.01314
G1 X153.49 Y68.384 E.08042
G1 X153.071 Y68.384 E.01314
G1 X153.071 Y65.819 E.08042
G1 X152.652 Y65.819 E.01314
G1 X152.652 Y68.384 E.08042
G1 X152.234 Y68.384 E.01311
G1 X152.234 Y65.819 E.08042
G1 X151.815 Y65.819 E.01314
G1 X151.815 Y68.384 E.08042
G1 X151.396 Y68.384 E.01314
G1 X151.396 Y65.819 E.08042
G1 X150.977 Y65.819 E.01314
G1 X150.977 Y68.384 E.08042
G1 X150.558 Y68.384 E.01314
G1 X150.558 Y65.819 E.08042
G1 X150.139 Y65.819 E.01314
G1 X150.139 Y68.384 E.08042
G1 X149.72 Y68.384 E.01314
G1 X149.72 Y65.819 E.08042
G1 X149.301 Y65.819 E.01314
G1 X149.301 Y68.384 E.08042
G1 X148.882 Y68.384 E.01314
G1 X148.882 Y65.819 E.08042
G1 X148.463 Y65.819 E.01314
G1 X148.463 Y68.384 E.08042
G1 X148.044 Y68.384 E.01314
G1 X148.044 Y65.819 E.08042
G1 X147.625 Y65.819 E.01314
G1 X147.625 Y68.384 E.08042
G1 X147.206 Y68.384 E.01314
G1 X147.206 Y65.819 E.08042
G1 X146.787 Y65.819 E.01314
G1 X146.787 Y68.384 E.08042
G1 X146.368 Y68.384 E.01314
G1 X146.368 Y65.819 E.08042
G1 X145.949 Y65.819 E.01314
G1 X145.949 Y68.384 E.08042
G1 X145.53 Y68.384 E.01314
G1 X145.53 Y65.819 E.08042
G1 X145.111 Y65.819 E.01314
G1 X145.111 Y68.384 E.08042
G1 X144.692 Y68.384 E.01314
G1 X144.692 Y65.819 E.08042
G1 X144.273 Y65.819 E.01314
G1 X144.273 Y68.384 E.08042
G1 X143.854 Y68.384 E.01314
G1 X143.854 Y65.819 E.08042
G1 X143.435 Y65.819 E.01314
G1 X143.435 Y68.384 E.08042
G1 X143.016 Y68.384 E.01314
G1 X143.016 Y65.819 E.08042
G1 X142.597 Y65.819 E.01314
G1 X142.597 Y68.384 E.08042
G1 X142.178 Y68.384 E.01314
G1 X142.178 Y65.819 E.08042
G1 X141.759 Y65.819 E.01314
G1 X141.759 Y68.384 E.08042
G1 X141.34 Y68.384 E.01314
G1 X141.34 Y65.819 E.08042
G1 X140.921 Y65.819 E.01314
G1 X140.921 Y68.384 E.08042
G1 X140.502 Y68.384 E.01314
G1 X140.502 Y65.819 E.08042
G1 X140.083 Y65.819 E.01314
G1 X140.083 Y68.384 E.08042
G1 X139.664 Y68.384 E.01314
G1 X139.664 Y65.819 E.08042
G1 X139.245 Y65.819 E.01314
G1 X139.245 Y68.384 E.08042
G1 X138.826 Y68.384 E.01314
G1 X138.826 Y65.819 E.08042
G1 X138.407 Y65.819 E.01314
G1 X138.407 Y68.384 E.08042
G1 X137.988 Y68.384 E.01314
G1 X137.988 Y65.819 E.08042
G1 X137.569 Y65.819 E.01314
G1 X137.569 Y68.384 E.08042
G1 X137.15 Y68.384 E.01314
G1 X137.15 Y65.819 E.08042
G1 X136.731 Y65.819 E.01314
G1 X136.731 Y68.384 E.08042
G1 X136.312 Y68.384 E.01314
G1 X136.312 Y65.819 E.08042
G1 X135.893 Y65.819 E.01314
G1 X135.893 Y68.384 E.08042
G1 X135.474 Y68.384 E.01314
G1 X135.474 Y65.819 E.08042
G1 X135.055 Y65.819 E.01314
G1 X135.055 Y68.384 E.08042
G1 X134.636 Y68.384 E.01314
G1 X134.636 Y65.819 E.08042
G1 X134.217 Y65.819 E.01314
G1 X134.217 Y68.384 E.08042
G1 X133.799 Y68.384 E.01311
G1 X133.799 Y65.819 E.08042
G1 X133.38 Y65.819 E.01314
G1 X133.38 Y68.384 E.08042
G1 X132.961 Y68.384 E.01314
G1 X132.961 Y65.819 E.08042
G1 X132.542 Y65.819 E.01314
G1 X132.542 Y68.384 E.08042
G1 X132.123 Y68.384 E.01314
G1 X132.123 Y65.819 E.08042
G1 X131.704 Y65.819 E.01314
G1 X131.704 Y68.384 E.08042
G1 X131.285 Y68.384 E.01314
G1 X131.285 Y65.819 E.08042
G1 X130.866 Y65.819 E.01314
G1 X130.866 Y68.384 E.08042
G1 X130.447 Y68.384 E.01314
G1 X130.447 Y65.819 E.08042
G1 X130.028 Y65.819 E.01314
G1 X130.028 Y68.384 E.08042
G1 X129.609 Y68.384 E.01314
G1 X129.609 Y65.819 E.08042
G1 X129.19 Y65.819 E.01314
G1 X129.19 Y68.384 E.08042
G1 X128.771 Y68.384 E.01314
G1 X128.771 Y65.819 E.08042
G1 X128.352 Y65.819 E.01314
G1 X128.352 Y68.384 E.08042
G1 X127.933 Y68.384 E.01314
G1 X127.933 Y65.819 E.08042
G1 X127.514 Y65.819 E.01314
G1 X127.514 Y68.384 E.08042
G1 X127.095 Y68.384 E.01314
G1 X127.095 Y65.819 E.08042
G1 X126.676 Y65.819 E.01314
G1 X126.676 Y68.384 E.08042
G1 X126.257 Y68.384 E.01314
G1 X126.257 Y65.819 E.08042
G1 X125.838 Y65.819 E.01314
G1 X125.838 Y68.384 E.08042
G1 X125.419 Y68.384 E.01314
G1 X125.419 Y65.819 E.08042
G1 X125 Y65.819 E.01314
G1 X125 Y68.384 E.08042
G1 X124.581 Y68.384 E.01314
G1 X124.581 Y65.819 E.08042
G1 X124.162 Y65.819 E.01314
G1 X124.162 Y68.384 E.08042
G1 X123.743 Y68.384 E.01314
G1 X123.743 Y65.819 E.08042
G1 X123.324 Y65.819 E.01314
G1 X123.324 Y68.384 E.08042
G1 X122.905 Y68.384 E.01314
G1 X122.905 Y65.819 E.08042
G1 X122.486 Y65.819 E.01314
G1 X122.486 Y68.384 E.08042
G1 X122.067 Y68.384 E.01314
G1 X122.067 Y65.819 E.08042
G1 X121.648 Y65.819 E.01314
G1 X121.648 Y68.384 E.08042
G1 X121.229 Y68.384 E.01314
G1 X121.229 Y65.819 E.08042
G1 X120.81 Y65.819 E.01314
G1 X120.81 Y68.384 E.08042
G1 X120.391 Y68.384 E.01314
G1 X120.391 Y65.819 E.08042
G1 X119.972 Y65.819 E.01314
G1 X119.972 Y68.384 E.08042
G1 X119.553 Y68.384 E.01314
G1 X119.553 Y65.819 E.08042
G1 X119.134 Y65.819 E.01314
G1 X119.134 Y68.384 E.08042
G1 X118.715 Y68.384 E.01314
G1 X118.715 Y65.819 E.08042
G1 X118.296 Y65.819 E.01314
G1 X118.296 Y68.384 E.08042
G1 X117.877 Y68.384 E.01314
G1 X117.877 Y65.819 E.08042
G1 X117.458 Y65.819 E.01314
G1 X117.458 Y68.384 E.08042
G1 X117.039 Y68.384 E.01314
G1 X117.039 Y65.819 E.08042
G1 X116.62 Y65.819 E.01314
G1 X116.62 Y68.384 E.08042
G1 X116.201 Y68.384 E.01314
G1 X116.201 Y65.819 E.08042
G1 X115.783 Y65.819 E.01311
G1 X115.783 Y68.384 E.08042
G1 X115.364 Y68.384 E.01314
G1 X115.364 Y65.819 E.08042
G1 X114.945 Y65.819 E.01314
G1 X114.945 Y68.384 E.08042
G1 X114.526 Y68.384 E.01314
G1 X114.526 Y65.819 E.08042
G1 X114.107 Y65.819 E.01314
G1 X114.107 Y68.384 E.08042
G1 X113.688 Y68.384 E.01314
G1 X113.688 Y65.819 E.08042
G1 X113.269 Y65.819 E.01314
G1 X113.269 Y68.384 E.08042
G1 X112.85 Y68.384 E.01314
G1 X112.85 Y65.819 E.08042
G1 X112.431 Y65.819 E.01314
G1 X112.431 Y68.384 E.08042
G1 X112.012 Y68.384 E.01314
G1 X112.012 Y65.819 E.08042
G1 X111.593 Y65.819 E.01314
G1 X111.593 Y68.384 E.08042
G1 X111.174 Y68.384 E.01314
G1 X111.174 Y65.819 E.08042
G1 X110.755 Y65.819 E.01314
G1 X110.755 Y68.384 E.08042
G1 X110.336 Y68.384 E.01314
G1 X110.336 Y65.819 E.08042
G1 X109.917 Y65.819 E.01314
G1 X109.917 Y68.384 E.08042
G1 X109.498 Y68.384 E.01314
G1 X109.498 Y65.819 E.08042
G1 X109.079 Y65.819 E.01314
G1 X109.079 Y68.384 E.08042
G1 X108.66 Y68.384 E.01314
G1 X108.66 Y65.819 E.08042
G1 X108.241 Y65.819 E.01314
G1 X108.241 Y68.384 E.08042
G1 X107.822 Y68.384 E.01314
G1 X107.822 Y65.819 E.08042
G1 X107.403 Y65.819 E.01314
G1 X107.403 Y68.384 E.08042
G1 X106.984 Y68.384 E.01314
G1 X106.984 Y65.819 E.08042
G1 X106.565 Y65.819 E.01314
G1 X106.565 Y68.384 E.08042
G1 X106.146 Y68.384 E.01314
G1 X106.146 Y65.819 E.08042
G1 X105.727 Y65.819 E.01314
G1 X105.727 Y68.384 E.08042
G1 X105.308 Y68.384 E.01314
G1 X105.308 Y65.819 E.08042
G1 X104.889 Y65.819 E.01314
G1 X104.889 Y68.384 E.08042
G1 X104.47 Y68.384 E.01314
G1 X104.47 Y65.819 E.08042
G1 X104.051 Y65.819 E.01314
G1 X104.051 Y68.384 E.08042
G1 X103.632 Y68.384 E.01314
G1 X103.632 Y65.819 E.08042
G1 X103.213 Y65.819 E.01314
G1 X103.213 Y68.384 E.08042
G1 X102.794 Y68.384 E.01314
G1 X102.794 Y65.819 E.08042
G1 X102.375 Y65.819 E.01314
G1 X102.375 Y68.384 E.08042
G1 X101.956 Y68.384 E.01314
G1 X101.956 Y65.819 E.08042
G1 X101.537 Y65.819 E.01314
G1 X101.537 Y68.384 E.08042
G1 X101.118 Y68.384 E.01314
G1 X101.118 Y65.819 E.08042
G1 X100.699 Y65.819 E.01314
G1 X100.699 Y68.384 E.08042
G1 X100.28 Y68.384 E.01314
G1 X100.28 Y65.819 E.08042
G1 X99.861 Y65.819 E.01314
G1 X99.861 Y68.384 E.08042
G1 X99.442 Y68.384 E.01314
G1 X99.442 Y65.819 E.08042
G1 X99.023 Y65.819 E.01314
G1 X99.023 Y68.384 E.08042
G1 X98.604 Y68.384 E.01314
G1 X98.604 Y65.819 E.08042
G1 X98.185 Y65.819 E.01314
G1 X98.185 Y68.384 E.08042
G1 X97.766 Y68.384 E.01314
G1 X97.766 Y65.819 E.08042
G1 X97.348 Y65.819 E.01311
G1 X97.348 Y68.384 E.08042
G1 X96.929 Y68.384 E.01314
G1 X96.929 Y65.819 E.08042
G1 X96.51 Y65.819 E.01314
G1 X96.51 Y68.384 E.08042
G1 X96.091 Y68.384 E.01314
G1 X96.091 Y65.819 E.08042
G1 X95.672 Y65.819 E.01314
G1 X95.672 Y68.384 E.08042
G1 X95.253 Y68.384 E.01314
G1 X95.253 Y65.819 E.08042
G1 X94.834 Y65.819 E.01314
G1 X94.834 Y68.384 E.08042
G1 X94.415 Y68.384 E.01314
M73 P1 R123
G1 X94.415 Y65.819 E.08042
G1 X93.996 Y65.819 E.01314
G1 X93.996 Y68.384 E.08042
G1 X93.577 Y68.384 E.01314
G1 X93.577 Y65.819 E.08042
G1 X93.158 Y65.819 E.01314
G1 X93.158 Y68.384 E.08042
G1 X92.739 Y68.384 E.01314
G1 X92.739 Y65.819 E.08042
G1 X92.32 Y65.819 E.01314
G1 X92.32 Y68.384 E.08042
G1 X91.901 Y68.384 E.01314
G1 X91.901 Y65.819 E.08042
G1 X91.482 Y65.819 E.01314
G1 X91.482 Y68.384 E.08042
G1 X91.063 Y68.384 E.01314
G1 X91.063 Y65.819 E.08042
G1 X90.644 Y65.819 E.01314
G1 X90.644 Y68.384 E.08042
G1 X90.225 Y68.384 E.01314
G1 X90.225 Y65.819 E.08042
G1 X89.806 Y65.819 E.01314
G1 X89.806 Y68.384 E.08042
G1 X89.387 Y68.384 E.01314
G1 X89.387 Y65.819 E.08042
G1 X88.968 Y65.819 E.01314
G1 X88.968 Y68.553 E.08572
M204 S1000
;WIPE_START
G1 F8640
G1 X88.968 Y65.819 E-.63129
G1 X89.387 Y65.819 E-.09675
G1 X89.387 Y66.131 E-.07196
;WIPE_END
G1 Z.6 F720
G1 X161.032 Y144.35 F10800
G1 Z.2 F720
G1 E.8 F2100
M204 S800
G1 F1200
G1 X161.032 Y141.616 E.08572
G1 X160.613 Y141.616 E.01314
G1 X160.613 Y144.181 E.08042
G1 X160.194 Y144.181 E.01314
G1 X160.194 Y141.616 E.08042
G1 X159.775 Y141.616 E.01314
G1 X159.775 Y144.181 E.08042
G1 X159.356 Y144.181 E.01314
G1 X159.356 Y141.616 E.08042
G1 X158.937 Y141.616 E.01314
G1 X158.937 Y144.181 E.08042
G1 X158.518 Y144.181 E.01314
G1 X158.518 Y141.616 E.08042
G1 X158.099 Y141.616 E.01314
G1 X158.099 Y144.181 E.08042
G1 X157.68 Y144.181 E.01314
G1 X157.68 Y141.616 E.08042
G1 X157.261 Y141.616 E.01314
G1 X157.261 Y144.181 E.08042
G1 X156.842 Y144.181 E.01314
G1 X156.842 Y141.616 E.08042
G1 X156.423 Y141.616 E.01314
G1 X156.423 Y144.181 E.08042
G1 X156.004 Y144.181 E.01314
G1 X156.004 Y141.616 E.08042
G1 X155.585 Y141.616 E.01314
G1 X155.585 Y144.181 E.08042
G1 X155.166 Y144.181 E.01314
G1 X155.166 Y141.616 E.08042
G1 X154.747 Y141.616 E.01314
G1 X154.747 Y144.181 E.08042
G1 X154.328 Y144.181 E.01314
G1 X154.328 Y141.616 E.08042
G1 X153.909 Y141.616 E.01314
G1 X153.909 Y144.181 E.08042
G1 X153.49 Y144.181 E.01314
G1 X153.49 Y141.616 E.08042
G1 X153.071 Y141.616 E.01314
G1 X153.071 Y144.181 E.08042
G1 X152.652 Y144.181 E.01314
G1 X152.652 Y141.616 E.08042
G1 X152.234 Y141.616 E.01311
G1 X152.234 Y144.181 E.08042
G1 X151.815 Y144.181 E.01314
G1 X151.815 Y141.616 E.08042
G1 X151.396 Y141.616 E.01314
G1 X151.396 Y144.181 E.08042
G1 X150.977 Y144.181 E.01314
