; generated by PrusaSlicer 2.9.2 on 2025-07-15 at 15:34:32 UTC


;
;
; 

; external perimeters extrusion width = 0.45mm
; perimeters extrusion width = 0.45mm
; infill extrusion width = 0.45mm
; solid infill extrusion width = 0.45mm
; top infill extrusion width = 0.40mm
; first layer extrusion width = 0.42mm

M73 P0 R33
M73 Q0 S33
M201 X1000 Y1000 Z200 E5000 ; sets maximum accelerations, mm/sec^2
M203 X200 Y200 Z12 E120 ; sets maximum feedrates, mm / sec
M204 S1250 T1250 ; sets acceleration (S) and retract acceleration (R), mm/sec^2
M205 X8.00 Y8.00 Z0.40 E4.50 ; sets the jerk limits, mm/sec
M205 S0 T0 ; sets the minimum extruding and travel feed rate, mm/sec

; printing object weave v1.obj id:0 copy 0
; stop printing object weave v1.obj id:0 copy 0

;TYPE:Custom
M862.3 P "MK3S" ; printer model check
M862.1 P0.4 ; nozzle diameter check
M115 U3.14.1 ; tell printer latest fw version
G90 ; use absolute coordinates
M83 ; extruder relative mode
M104 S215 ; set extruder temp
M140 S60 ; set bed temp
M190 S60 ; wait for bed temp
M109 S215 ; wait for extruder temp
G28 W ; home all without mesh bed level
G80 X27.6229 Y57.6229 W194.754 H94.7542 ; mesh bed levelling

G1 Z0.2 F720
G1 Y-3 F1000 ; go outside print area
G92 E0
G1 X60 E9 F1000 ; intro line
G1 X100 E12.5 F1000 ; intro line

G92 E0
M221 S95

; Don't change E values below. Excessive value can damage the printer.
M907 E430 ; set extruder motor current
G21 ; set units to millimeters
G90 ; use absolute coordinates
M83 ; use relative distances for extrusion

M900 K0.05 ; Filament gcode LA 1.5
M900 K30 ; Filament gcode LA 1.0




M107
;LAYER_CHANGE
;Z:0.2
;HEIGHT:0.2
G1 E-.8 F2100
G1 Z.6 F720
G1 X29.235 Y57.949 F10800
G1 Z.2 F720
G1 E.8 F2100
M204 S800
;TYPE:Skirt/Brim
;WIDTH:0.42
G1 F1200
G1 X30 Y57.811 E.02437
G1 X220 Y57.811 E5.95732
G1 X221.248 Y58.202 E.04101
G1 X222.051 Y59.235 E.04102
G1 X222.189 Y60 E.02437
G1 X222.189 Y150 E2.82189
G1 X221.798 Y151.248 E.04101
M73 P1 R32
M73 Q1 S33
G1 X220.765 Y152.051 E.04102
G1 X220 Y152.189 E.02437
G1 X30 Y152.189 E5.95732
G1 X28.752 Y151.798 E.04101
M73 Q1 S32
G1 X27.949 Y150.765 E.04102
G1 X27.811 Y150 E.02437
G1 X27.811 Y60 E2.82189
G1 X28.202 Y58.752 E.04101
G1 X29.188 Y57.986 E.03915
M204 S1000
;WIPE_START
G1 F8640
G1 X29.235 Y57.949 E-.01381
G1 X30 Y57.811 E-.17949
G1 X32.628 Y57.811 E-.6067
;WIPE_END
G1 Z.6 F720
; printing object weave v1.obj id:0 copy 0
G1 X210.787 Y149.213 F10800
G1 Z.2 F720
G1 E.8 F2100
M204 S800
;TYPE:Perimeter
;WIDTH:0.419999
G1 F1200
G1 X210.787 Y60.787 E2.77253
G1 X219.213 Y60.787 E.26419
M73 P2 R32
M73 Q2 S32
G1 X219.213 Y65 E.1321
G1 X219.213 Y149.213 E2.64044
G1 X210.847 Y149.213 E.26231
M204 S1000
G1 X210.41 Y149.59 F10800
M204 S800
;TYPE:External perimeter
G1 F1200
G1 X210.41 Y60.41 E2.79617
G1 X219.59 Y60.41 E.28783
G1 X219.59 Y65 E.14392
G1 X219.59 Y149.59 E2.65226
G1 X210.47 Y149.59 E.28595
M204 S1000
;WIPE_START
G1 F8640
G1 X210.41 Y149.59 E-.01385
G1 X210.41 Y146.185 E-.78615
;WIPE_END
G1 Z.6 F720
G1 X219.043 Y61.721 F10800
G1 Z.2 F720
G1 E.8 F2100
M204 S800
;TYPE:Solid infill
;WIDTH:0.421019
G1 F1200
G1 X218.449 Y61.126 E.02643
G1 X217.914 Y61.126 E.01682
G1 X218.874 Y62.086 E.04268
G1 X218.874 Y62.621 E.01682
G1 X217.379 Y61.126 E.06647
G1 X216.844 Y61.126 E.01682
G1 X218.874 Y63.156 E.09026
G1 X218.874 Y63.69 E.01679
G1 X216.31 Y61.126 E.114
G1 X215.775 Y61.126 E.01682
G1 X218.874 Y64.225 E.13779
G1 X218.874 Y64.76 E.01682
G1 X215.24 Y61.126 E.16157
G1 X214.706 Y61.126 E.01679
M73 Q3 S32
G1 X218.874 Y65.294 E.18532
G1 X218.874 Y65.829 E.01682
G1 X214.171 Y61.126 E.2091
G1 X213.636 Y61.126 E.01682
G1 X218.874 Y66.364 E.23289
M73 P3 R32
G1 X218.874 Y66.899 E.01682
G1 X213.101 Y61.126 E.25668
G1 X212.567 Y61.126 E.01679
G1 X218.874 Y67.433 E.28042
G1 X218.874 Y67.968 E.01682
G1 X212.032 Y61.126 E.30421
G1 X211.497 Y61.126 E.01682
G1 X218.874 Y68.503 E.32799
G1 X218.874 Y69.037 E.01679
G1 X211.126 Y61.29 E.34447
G1 X211.126 Y61.825 E.01682
G1 X218.874 Y69.572 E.34447
G1 X218.874 Y70.107 E.01682
G1 X211.126 Y62.36 E.34447
G1 X211.126 Y62.894 E.01679
G1 X218.874 Y70.642 E.34449
G1 X218.874 Y71.176 E.01679
G1 X211.126 Y63.429 E.34447
G1 X211.126 Y63.964 E.01682
G1 X218.874 Y71.711 E.34447
G1 X218.874 Y72.246 E.01682
G1 X211.126 Y64.499 E.34447
G1 X211.126 Y65.033 E.01679
G1 X218.874 Y72.78 E.34447
G1 X218.874 Y73.315 E.01682
G1 X211.126 Y65.568 E.34447
G1 X211.126 Y66.103 E.01682
G1 X218.874 Y73.85 E.34447
G1 X218.874 Y74.385 E.01682
G1 X211.126 Y66.637 E.34449
G1 X211.126 Y67.172 E.01682
G1 X218.874 Y74.919 E.34447
G1 X218.874 Y75.454 E.01682
G1 X211.126 Y67.707 E.34447
G1 X211.126 Y68.242 E.01682
G1 X218.874 Y75.989 E.34447
G1 X218.874 Y76.523 E.01679
G1 X211.126 Y68.776 E.34447
G1 X211.126 Y69.311 E.01682
G1 X218.874 Y77.058 E.34447
G1 X218.874 Y77.593 E.01682
G1 X211.126 Y69.846 E.34447
G1 X211.126 Y70.38 E.01679
G1 X218.874 Y78.128 E.34449
G1 X218.874 Y78.662 E.01679
G1 X211.126 Y70.915 E.34447
G1 X211.126 Y71.45 E.01682
G1 X218.874 Y79.197 E.34447
G1 X218.874 Y79.732 E.01682
G1 X211.126 Y71.985 E.34447
G1 X211.126 Y72.519 E.01679
G1 X218.874 Y80.266 E.34447
G1 X218.874 Y80.801 E.01682
G1 X211.126 Y73.054 E.34447
G1 X211.126 Y73.589 E.01682
G1 X218.874 Y81.336 E.34447
G1 X218.874 Y81.871 E.01682
G1 X211.126 Y74.123 E.34449
G1 X211.126 Y74.658 E.01682
G1 X218.874 Y82.405 E.34447
G1 X218.874 Y82.94 E.01682
G1 X211.126 Y75.193 E.34447
G1 X211.126 Y75.728 E.01682
G1 X218.874 Y83.475 E.34447
G1 X218.874 Y84.009 E.01679
M73 P3 R31
G1 X211.126 Y76.262 E.34447
G1 X211.126 Y76.797 E.01682
M73 Q4 S32
G1 X218.874 Y84.544 E.34447
G1 X218.874 Y85.079 E.01682
M73 P4 R31
G1 X211.126 Y77.332 E.34447
G1 X211.126 Y77.866 E.01679
G1 X218.874 Y85.614 E.34449
G1 X218.874 Y86.148 E.01679
G1 X211.126 Y78.401 E.34447
G1 X211.126 Y78.936 E.01682
M73 Q4 S31
G1 X218.874 Y86.683 E.34447
G1 X218.874 Y87.218 E.01682
G1 X211.126 Y79.471 E.34447
G1 X211.126 Y80.005 E.01679
G1 X218.874 Y87.752 E.34447
G1 X218.874 Y88.287 E.01682
G1 X211.126 Y80.54 E.34447
G1 X211.126 Y81.075 E.01682
G1 X218.874 Y88.822 E.34447
G1 X218.874 Y89.357 E.01682
G1 X211.126 Y81.609 E.34449
G1 X211.126 Y82.144 E.01682
G1 X218.874 Y89.891 E.34447
G1 X218.874 Y90.426 E.01682
G1 X211.126 Y82.679 E.34447
G1 X211.126 Y83.214 E.01682
G1 X218.874 Y90.961 E.34447
G1 X218.874 Y91.495 E.01679
G1 X211.126 Y83.748 E.34447
G1 X211.126 Y84.283 E.01682
G1 X218.874 Y92.03 E.34447
G1 X218.874 Y92.565 E.01682
G1 X211.126 Y84.818 E.34447
G1 X211.126 Y85.352 E.01679
G1 X218.874 Y93.1 E.34449
G1 X218.874 Y93.634 E.01679
G1 X211.126 Y85.887 E.34447
G1 X211.126 Y86.422 E.01682
G1 X218.874 Y94.169 E.34447
G1 X218.874 Y94.704 E.01682
G1 X211.126 Y86.957 E.34447
G1 X211.126 Y87.491 E.01679
G1 X218.874 Y95.238 E.34447
G1 X218.874 Y95.773 E.01682
G1 X211.126 Y88.026 E.34447
G1 X211.126 Y88.561 E.01682
G1 X218.874 Y96.308 E.34447
G1 X218.874 Y96.843 E.01682
G1 X211.126 Y89.095 E.34449
G1 X211.126 Y89.63 E.01682
G1 X218.874 Y97.377 E.34447
G1 X218.874 Y97.912 E.01682
G1 X211.126 Y90.165 E.34447
G1 X211.126 Y90.7 E.01682
G1 X218.874 Y98.447 E.34447
G1 X218.874 Y98.981 E.01679
G1 X211.126 Y91.234 E.34447
G1 X211.126 Y91.769 E.01682
G1 X218.874 Y99.516 E.34447
G1 X218.874 Y100.051 E.01682
G1 X211.126 Y92.304 E.34447
G1 X211.126 Y92.838 E.01679
G1 X218.874 Y100.586 E.34449
G1 X218.874 Y101.12 E.01679
G1 X211.126 Y93.373 E.34447
G1 X211.126 Y93.908 E.01682
G1 X218.874 Y101.655 E.34447
G1 X218.874 Y102.19 E.01682
G1 X211.126 Y94.443 E.34447
G1 X211.126 Y94.977 E.01679
M73 Q5 S31
G1 X218.874 Y102.724 E.34447
G1 X218.874 Y103.259 E.01682
M73 P5 R31
G1 X211.126 Y95.512 E.34447
G1 X211.126 Y96.047 E.01682
G1 X218.874 Y103.794 E.34447
G1 X218.874 Y104.329 E.01682
G1 X211.126 Y96.581 E.34449
G1 X211.126 Y97.116 E.01682
G1 X218.874 Y104.863 E.34447
G1 X218.874 Y105.398 E.01682
G1 X211.126 Y97.651 E.34447
G1 X211.126 Y98.186 E.01682
G1 X218.874 Y105.933 E.34447
G1 X218.874 Y106.467 E.01679
G1 X211.126 Y98.72 E.34447
G1 X211.126 Y99.255 E.01682
G1 X218.874 Y107.002 E.34447
G1 X218.874 Y107.537 E.01682
G1 X211.126 Y99.79 E.34447
G1 X211.126 Y100.324 E.01679
G1 X218.874 Y108.072 E.34449
G1 X218.874 Y108.606 E.01679
G1 X211.126 Y100.859 E.34447
G1 X211.126 Y101.394 E.01682
G1 X218.874 Y109.141 E.34447
G1 X218.874 Y109.676 E.01682
G1 X211.126 Y101.929 E.34447
G1 X211.126 Y102.463 E.01679
G1 X218.874 Y110.21 E.34447
G1 X218.874 Y110.745 E.01682
G1 X211.126 Y102.998 E.34447
G1 X211.126 Y103.533 E.01682
G1 X218.874 Y111.28 E.34447
G1 X218.874 Y111.815 E.01682
G1 X211.126 Y104.067 E.34449
G1 X211.126 Y104.602 E.01682
G1 X218.874 Y112.349 E.34447
G1 X218.874 Y112.884 E.01682
G1 X211.126 Y105.137 E.34447
G1 X211.126 Y105.672 E.01682
G1 X218.874 Y113.419 E.34447
G1 X218.874 Y113.953 E.01679
G1 X211.126 Y106.206 E.34447
G1 X211.126 Y106.741 E.01682
G1 X218.874 Y114.488 E.34447
G1 X218.874 Y115.023 E.01682
G1 X211.126 Y107.276 E.34447
G1 X211.126 Y107.81 E.01679
G1 X218.874 Y115.557 E.34447
G1 X218.874 Y116.092 E.01682
G1 X211.126 Y108.345 E.34447
G1 X211.126 Y108.88 E.01682
G1 X218.874 Y116.627 E.34447
G1 X218.874 Y117.162 E.01682
G1 X211.126 Y109.415 E.34447
G1 X211.126 Y109.949 E.01679
G1 X218.874 Y117.696 E.34447
G1 X218.874 Y118.231 E.01682
G1 X211.126 Y110.484 E.34447
G1 X211.126 Y111.019 E.01682
G1 X218.874 Y118.766 E.34447
G1 X218.874 Y119.3 E.01679
G1 X211.126 Y111.553 E.34447
G1 X211.126 Y112.088 E.01682
G1 X218.874 Y119.835 E.34447
G1 X218.874 Y120.37 E.01682
G1 X211.126 Y112.623 E.34447
G1 X211.126 Y113.157 E.01679
M73 Q6 S31
G1 X218.874 Y120.905 E.34449
G1 X218.874 Y121.439 E.01679
M73 P6 R31
G1 X211.126 Y113.692 E.34447
G1 X211.126 Y114.227 E.01682
G1 X218.874 Y121.974 E.34447
G1 X218.874 Y122.509 E.01682
G1 X211.126 Y114.762 E.34447
G1 X211.126 Y115.296 E.01679
G1 X218.874 Y123.043 E.34447
G1 X218.874 Y123.578 E.01682
G1 X211.126 Y115.831 E.34447
G1 X211.126 Y116.366 E.01682
G1 X218.874 Y124.113 E.34447
G1 X218.874 Y124.648 E.01682
G1 X211.126 Y116.9 E.34449
G1 X211.126 Y117.435 E.01682
G1 X218.874 Y125.182 E.34447
G1 X218.874 Y125.717 E.01682
G1 X211.126 Y117.97 E.34447
G1 X211.126 Y118.505 E.01682
G1 X218.874 Y126.252 E.34447
G1 X218.874 Y126.786 E.01679
G1 X211.126 Y119.039 E.34447
G1 X211.126 Y119.574 E.01682
G1 X218.874 Y127.321 E.34447
G1 X218.874 Y127.856 E.01682
G1 X211.126 Y120.109 E.34447
G1 X211.126 Y120.643 E.01679
G1 X218.874 Y128.391 E.34449
G1 X218.874 Y128.925 E.01679
G1 X211.126 Y121.178 E.34447
G1 X211.126 Y121.713 E.01682
G1 X218.874 Y129.46 E.34447
G1 X218.874 Y129.995 E.01682
G1 X211.126 Y122.248 E.34447
G1 X211.126 Y122.782 E.01679
G1 X218.874 Y130.529 E.34447
G1 X218.874 Y131.064 E.01682
G1 X211.126 Y123.317 E.34447
G1 X211.126 Y123.852 E.01682
G1 X218.874 Y131.599 E.34447
G1 X218.874 Y132.134 E.01682
G1 X211.126 Y124.386 E.34449
G1 X211.126 Y124.921 E.01682
G1 X218.874 Y132.668 E.34447
G1 X218.874 Y133.203 E.01682
G1 X211.126 Y125.456 E.34447
G1 X211.126 Y125.991 E.01682
G1 X218.874 Y133.738 E.34447
G1 X218.874 Y134.272 E.01679
G1 X211.126 Y126.525 E.34447
G1 X211.126 Y127.06 E.01682
G1 X218.874 Y134.807 E.34447
G1 X218.874 Y135.342 E.01682
G1 X211.126 Y127.595 E.34447
G1 X211.126 Y128.129 E.01679
G1 X218.874 Y135.877 E.34449
G1 X218.874 Y136.411 E.01679
G1 X211.126 Y128.664 E.34447
G1 X211.126 Y129.199 E.01682
G1 X218.874 Y136.946 E.34447
G1 X218.874 Y137.481 E.01682
G1 X211.126 Y129.734 E.34447
G1 X211.126 Y130.268 E.01679
G1 X218.874 Y138.015 E.34447
G1 X218.874 Y138.55 E.01682
M73 P6 R30
G1 X211.126 Y130.803 E.34447
G1 X211.126 Y131.338 E.01682
M73 Q7 S31
G1 X218.874 Y139.085 E.34447
G1 X218.874 Y139.62 E.01682
M73 P7 R30
G1 X211.126 Y131.872 E.34449
G1 X211.126 Y132.407 E.01682
G1 X218.874 Y140.154 E.34447
G1 X218.874 Y140.689 E.01682
G1 X211.126 Y132.942 E.34447
G1 X211.126 Y133.477 E.01682
M73 Q7 S30
G1 X218.874 Y141.224 E.34447
G1 X218.874 Y141.758 E.01679
G1 X211.126 Y134.011 E.34447
G1 X211.126 Y134.546 E.01682
G1 X218.874 Y142.293 E.34447
G1 X218.874 Y142.828 E.01682
G1 X211.126 Y135.081 E.34447
G1 X211.126 Y135.615 E.01679
G1 X218.874 Y143.363 E.34449
G1 X218.874 Y143.897 E.01679
G1 X211.126 Y136.15 E.34447
G1 X211.126 Y136.685 E.01682
G1 X218.874 Y144.432 E.34447
G1 X218.874 Y144.967 E.01682
G1 X211.126 Y137.22 E.34447
G1 X211.126 Y137.754 E.01679
G1 X218.874 Y145.501 E.34447
G1 X218.874 Y146.036 E.01682
G1 X211.126 Y138.289 E.34447
G1 X211.126 Y138.824 E.01682
G1 X218.874 Y146.571 E.34447
G1 X218.874 Y147.106 E.01682
G1 X211.126 Y139.358 E.34449
G1 X211.126 Y139.893 E.01682
G1 X218.874 Y147.64 E.34447
G1 X218.874 Y148.175 E.01682
G1 X211.126 Y140.428 E.34447
G1 X211.126 Y140.963 E.01682
G1 X218.874 Y148.71 E.34447
G1 X218.874 Y148.874 E.00516
G1 X218.503 Y148.874 E.01166
G1 X211.126 Y141.497 E.32799
G1 X211.126 Y142.032 E.01682
G1 X217.968 Y148.874 E.30421
G1 X217.433 Y148.874 E.01682
G1 X211.126 Y142.567 E.28042
G1 X211.126 Y143.101 E.01679
G1 X216.899 Y148.874 E.25668
G1 X216.364 Y148.874 E.01682
G1 X211.126 Y143.636 E.23289
G1 X211.126 Y144.171 E.01682
G1 X215.829 Y148.874 E.2091
G1 X215.294 Y148.874 E.01682
G1 X211.126 Y144.706 E.18532
G1 X211.126 Y145.24 E.01679
G1 X214.76 Y148.874 E.16157
G1 X214.225 Y148.874 E.01682
G1 X211.126 Y145.775 E.13779
G1 X211.126 Y146.31 E.01682
G1 X213.69 Y148.874 E.114
G1 X213.156 Y148.874 E.01679
G1 X211.126 Y146.844 E.09026
G1 X211.126 Y147.379 E.01682
G1 X212.621 Y148.874 E.06647
G1 X212.086 Y148.874 E.01682
G1 X211.126 Y147.914 E.04268
G1 X211.126 Y148.449 E.01682
G1 X211.721 Y149.043 E.02643
M204 S1000
;WIPE_START
G1 F8640
G1 X211.126 Y148.449 E-.19413
G1 X211.126 Y147.914 E-.12353
G1 X212.086 Y148.874 E-.31348
G1 X212.621 Y148.874 E-.12353
G1 X212.482 Y148.735 E-.04533
;WIPE_END
G1 Z.6 F720
G1 X190.787 Y149.213 F10800
G1 Z.2 F720
G1 E.8 F2100
M204 S800
;TYPE:Perimeter
;WIDTH:0.419999
G1 F1200
G1 X190.787 Y60.787 E2.77253
G1 X199.213 Y60.787 E.26419
M73 P8 R30
M73 Q8 S30
G1 X199.213 Y65 E.1321
G1 X199.213 Y149.213 E2.64044
G1 X190.847 Y149.213 E.26231
M204 S1000
G1 X190.41 Y149.59 F10800
M204 S800
;TYPE:External perimeter
G1 F1200
G1 X190.41 Y60.41 E2.79617
G1 X199.59 Y60.41 E.28783
G1 X199.59 Y65 E.14392
G1 X199.59 Y149.59 E2.65226
G1 X190.47 Y149.59 E.28595
M204 S1000
;WIPE_START
G1 F8640
G1 X190.41 Y149.59 E-.01385
G1 X190.41 Y146.185 E-.78615
;WIPE_END
G1 Z.6 F720
G1 X199.043 Y61.721 F10800
G1 Z.2 F720
G1 E.8 F2100
M204 S800
;TYPE:Solid infill
;WIDTH:0.421019
G1 F1200
G1 X198.449 Y61.126 E.02643
G1 X197.914 Y61.126 E.01682
G1 X198.874 Y62.086 E.04268
G1 X198.874 Y62.621 E.01682
G1 X197.379 Y61.126 E.06647
G1 X196.844 Y61.126 E.01682
G1 X198.874 Y63.156 E.09026
G1 X198.874 Y63.69 E.01679
G1 X196.31 Y61.126 E.114
G1 X195.775 Y61.126 E.01682
G1 X198.874 Y64.225 E.13779
G1 X198.874 Y64.76 E.01682
G1 X195.24 Y61.126 E.16157
G1 X194.706 Y61.126 E.01679
G1 X198.874 Y65.294 E.18532
G1 X198.874 Y65.829 E.01682
G1 X194.171 Y61.126 E.2091
G1 X193.636 Y61.126 E.01682
G1 X198.874 Y66.364 E.23289
G1 X198.874 Y66.899 E.01682
G1 X193.101 Y61.126 E.25668
G1 X192.567 Y61.126 E.01679
M73 Q9 S30
G1 X198.874 Y67.433 E.28042
G1 X198.874 Y67.968 E.01682
G1 X192.032 Y61.126 E.30421
G1 X191.497 Y61.126 E.01682
M73 P9 R30
G1 X198.874 Y68.503 E.32799
G1 X198.874 Y69.037 E.01679
G1 X191.126 Y61.29 E.34447
G1 X191.126 Y61.825 E.01682
G1 X198.874 Y69.572 E.34447
G1 X198.874 Y70.107 E.01682
G1 X191.126 Y62.36 E.34447
G1 X191.126 Y62.894 E.01679
G1 X198.874 Y70.642 E.34449
G1 X198.874 Y71.176 E.01679
G1 X191.126 Y63.429 E.34447
G1 X191.126 Y63.964 E.01682
G1 X198.874 Y71.711 E.34447
G1 X198.874 Y72.246 E.01682
G1 X191.126 Y64.499 E.34447
G1 X191.126 Y65.033 E.01679
G1 X198.874 Y72.78 E.34447
G1 X198.874 Y73.315 E.01682
G1 X191.126 Y65.568 E.34447
G1 X191.126 Y66.103 E.01682
G1 X198.874 Y73.85 E.34447
G1 X198.874 Y74.385 E.01682
G1 X191.126 Y66.637 E.34449
G1 X191.126 Y67.172 E.01682
G1 X198.874 Y74.919 E.34447
G1 X198.874 Y75.454 E.01682
G1 X191.126 Y67.707 E.34447
G1 X191.126 Y68.242 E.01682
G1 X198.874 Y75.989 E.34447
G1 X198.874 Y76.523 E.01679
G1 X191.126 Y68.776 E.34447
G1 X191.126 Y69.311 E.01682
G1 X198.874 Y77.058 E.34447
G1 X198.874 Y77.593 E.01682
G1 X191.126 Y69.846 E.34447
G1 X191.126 Y70.38 E.01679
